!!!OTL: Cai mi ge
!!!ARE: Asia, China,ÿGuangdong, meixian
!! II, 415
!!!SCT: C1519
!!!YEM: Copyright 1995, estate of Helmut Schaffrath.
**kern
*ICvox
*Ivox
*M2/4
*k[]
*C:
{4a
4ee
=1
8cc
8cc
8cc
8a
=2
[2g
=3
4g]
4r}
=4
{4ee
4ee
=5
4ee
8a
8cc
=6
8cc
[4.dd
=7
2dd]}
=8
{4a
4ee
=9
8cc
8cc
[4cc
=10
4cc]
8r
8ee
=11
4a
8cc
8dd
=12
4cc
[4g
=13
2g]}
=14
{4a
4ee
=15
8cc
8cc
8a
[8cc
=16
8cc]
8r
8cc
8ee
=17
4dd
4cc
=18
4dd
4g
=19
[2a
=20
4a]
4r}
=21
{4a
4ee
=22
8cc
8cc
[4dd
=23
4.dd]
8r}
=24
{4cc
4ee
=25
4cc
8cc
8a
=26
8g
[4.g}
=27
8g]}
8r
8a
8cc
=28
4e
[4g
=29
4g]
8r
8dd
=30
4cc
8cc
8dd
=31
8ee
4dd
8ee
=32
4cc
4a
=33
4cc}
{8r
8dd
=34
4cc
8cc
8dd
=35
4a
8r
8dd
=36
8a
4a
8dd
=37
4cc}
{8r
8dd
=38
8ee
8a
8ee
8a
=39
4cc
8cc
8a
=40
4cc
8cc
8a
=41
8g
[4.g
=42
4g]
4r}
==
!!!AGN: Xiaodiao, Kuilei qiang
!!!AMT: simple duple
!!!AIN: vox
!!!EED: Helmut Schaffrath
!!!EEV: 1.0
*-
!!!ONB: Tied note syntax fixed by Craig Sapp, 2004/05/03/
